X: 7415
T: Clonattin In The Fields
R: jig
M: 6/8
K: Dmajor
|:fed ecA|GFG AFD|FDF GFG|Adc Ade|
fed ecA|GFG AFD|FDF GFG|1 Adc d3:|2 Adc d2e||
|:fdc dfa|gec dAF|Be_e =e2 d|
[1 cA^G Ade|fdc dfa|gec dAG|FDF GFG|Adc d2 e:|
[2 cA^G A2 =G|FDF E2 G|ABc dAG|FDF GFG|Adc d3||

